X: 22
M: none
L: 1/8
K: F
(cB) |\
fc Ac fgaf | bagf efge | fd gf edec | d2 f2 f2 ||
ef |\
gfga fedc | fd Bd ga gf | defd ga fg | e2 (c2 c2) AB |\
cA Bc defd | gd fg e2 (dc) | df AB GA Bc | A2 F2 F2 |]


